X:1
T:Title
%%score { ( 1 4 ) | ( 2 3 ) }
L:1/8
M:3/4
K:Eb
V:1 treble nm="Grand Piano"
V:4 treble 
V:2 bass 
V:3 bass 
V:1
 z2 z2[Q:1/4=100] [GB]>A | [B,EG][B,EG] [B,EG]2 [B,EB]2 | [A,DF][B,DG] [G,E]2 [CDF][CEG] | A4 z2 | %4
[M:2/4] B4 |[M:1/4] [GB]>A |[M:3/4] [B,EG][B,EG] [B,EG]2 [B,EB]2 | [A,DF][B,DG] E2 ec | %8
 B4 [DG][DF] |[M:2/4] E4 |[M:1/4] A>G |[M:3/4] FG Ac BG | B4 A>G | FG Ac BG |[M:2/4] B4 | %15
[M:1/4] [GB]>A |[M:3/4] [B,EG][B,EG] [B,EG]2 [B,EB]2 | [A,DF][B,DG] E2 ec | B4 [DG][DF] | %19
[M:2/4] E4 |] %20
V:2
 z2 z2 z z/ F/ | E,E, E,2 G,,2 | B,,B,, C,2 C,C, | z2 z B, [G,B,E][F,A,D] |[M:2/4] [E,G,E]4 | %5
[M:1/4] z z/ F/ |[M:3/4] E,E, E,2 G,,2 | B,,B,, [C,G,]2 [E,G,E][E,A,E] | [E,G,E]4 [B,,B,][B,,A,] | %9
[M:2/4] [E,G,]4 |[M:1/4] C>B, |[M:3/4] [E,A,E][E,B,E] [E,CE][E,A,E] [E,G,E][E,B,E] | %12
 [E,G,E]4 C>B, | [E,A,E][E,B,E] [E,CE][E,A,E] [E,G,E][E,B,E] |[M:2/4] [E,G,E]4 |[M:1/4] z z/ F/ | %16
[M:3/4] E,E, E,2 G,,2 | B,,B,, [C,G,]2 [E,G,E][E,A,E] | [E,G,E]4 [B,,B,][B,,A,] |[M:2/4] [E,G,]4 |] %20
V:3
 z2 z2 [E,B,]2 | x6 | x6 | F,4 z2 |[M:2/4] x4 |[M:1/4] [E,B,]2 |[M:3/4] x6 | x6 | x6 |[M:2/4] x4 | %10
[M:1/4] [E,E]2 |[M:3/4] x6 | z2 z2 [E,E]2 | x6 |[M:2/4] x4 |[M:1/4] [E,B,]2 |[M:3/4] x6 | x6 | x6 | %19
[M:2/4] x4 |] %20
V:4
 x6 | x6 | x6 | [CF]3 D GA |[M:2/4] x4 |[M:1/4] x2 |[M:3/4] x6 | x6 | x6 |[M:2/4] x4 |[M:1/4] x2 | %11
[M:3/4] x6 | x6 | x6 |[M:2/4] x4 |[M:1/4] x2 |[M:3/4] x6 | x6 | x6 |[M:2/4] x4 |] %20

